X: 1233
T: An Dro Des Petits Bateaux
R: reel
M: 4/4
K: Dmajor
|F2D2 A2D2|{A}FDEG F2DE|F2ED A2DE|1 (3FED EC D4:|2 FGEF D4||
F2DE F2DE|F2G2 E2A2|A2D2 A2D2|{A}EDEG F2D2|
F2DE F2DE|F2G2 E2A2|A2D2 A2D2|{A}EDEG F2D2:|

